icons/jsp.svg

<svg width="16" height="16" viewBox="0 0 16 16" fill="none" xmlns="http://www.w3.org/2000/svg">
<path d="M5 6.5V5.5C4.93319 5.50442 4.86622 5.49452 4.80355 5.47095C4.74088 5.44739 4.68397 5.41071 4.63663 5.36337C4.58929 5.31602 4.55261 5.25912 4.52905 5.19645C4.50548 5.13378 4.49558 5.0668 4.5 5C4.5 4.72 4.61 4.6 4.85 4.35C5.05207 4.18761 5.21529 3.98212 5.32775 3.74855C5.44021 3.51498 5.49906 3.25923 5.5 3H4.5C4.5 3.28 4.39 3.4 4.15 3.65C3.94793 3.81239 3.7847 4.01788 3.67224 4.25145C3.55979 4.48502 3.50094 4.74077 3.5 5C3.49448 5.19848 3.52951 5.396 3.60294 5.58049C3.67637 5.76497 3.78666 5.93254 3.92706 6.07294C4.06746 6.21334 4.23503 6.32363 4.41951 6.39706C4.60399 6.47049 4.80152 6.50552 5 6.5V6.5Z" fill="#2CB6D4"/>
<path d="M10 6.5V5.5C9.93319 5.50442 9.86622 5.49452 9.80355 5.47095C9.74088 5.44739 9.68397 5.41071 9.63663 5.36337C9.58929 5.31602 9.55261 5.25912 9.52905 5.19645C9.50548 5.13378 9.49558 5.0668 9.5 5C9.5 4.72 9.61 4.6 9.85 4.35C10.0521 4.18761 10.2153 3.98212 10.3278 3.74855C10.4402 3.51498 10.4991 3.25923 10.5 3H9.5C9.5 3.28 9.39 3.4 9.15 3.65C8.94793 3.81239 8.7847 4.01788 8.67225 4.25145C8.55979 4.48502 8.50094 4.74077 8.5 5C8.49448 5.19848 8.52951 5.396 8.60294 5.58049C8.67637 5.76497 8.78666 5.93254 8.92706 6.07294C9.06746 6.21334 9.23503 6.32363 9.41951 6.39706C9.60399 6.47049 9.80152 6.50552 10 6.5Z" fill="#2CB6D4"/>
<path d="M6 5C5.99448 5.19848 6.02951 5.396 6.10294 5.58049C6.17637 5.76497 6.28666 5.93254 6.42706 6.07294C6.56746 6.21334 6.73503 6.32363 6.91951 6.39706C7.10399 6.47049 7.30152 6.50552 7.5 6.5V5.5C7.43319 5.50442 7.36622 5.49451 7.30355 5.47095C7.24088 5.44739 7.18397 5.41071 7.13663 5.36336C7.08929 5.31602 7.05261 5.25911 7.02905 5.19645C7.00548 5.13378 6.99558 5.0668 7 5C7 4.72 7.11 4.6 7.35 4.35C7.55207 4.18761 7.71529 3.98212 7.82775 3.74855C7.94021 3.51498 7.99906 3.25923 8 3C8.00552 2.80152 7.97049 2.60399 7.89706 2.41951C7.82363 2.23503 7.71334 2.06746 7.57294 1.92706C7.43254 1.78666 7.26497 1.67637 7.08049 1.60294C6.896 1.52951 6.69848 1.49448 6.5 1.5V2.5C6.5668 2.49558 6.63378 2.50548 6.69645 2.52905C6.75911 2.55261 6.81602 2.58929 6.86336 2.63663C6.91071 2.68397 6.94739 2.74088 6.97095 2.80355C6.99451 2.86622 7.00442 2.93319 7 3C7 3.28 6.89 3.4 6.65 3.65C6.44793 3.81239 6.2847 4.01788 6.17224 4.25145C6.05979 4.48502 6.00094 4.74077 6 5V5Z" fill="#2CB6D4"/>
<path fill-rule="evenodd" clip-rule="evenodd" d="M2.5 7H11.88V7.02C12.4741 7.02 13.0438 7.256 13.4639 7.67608C13.884 8.09616 14.12 8.66592 14.12 9.26C14.12 9.85408 13.884 10.4238 13.4639 10.8439C13.0438 11.264 12.4741 11.5 11.88 11.5H11.03C10.5786 12.4085 9.83345 13.1379 8.91545 13.5697C7.99745 14.0015 6.96047 14.1105 5.97276 13.8789C4.98505 13.6473 4.10457 13.0888 3.47419 12.2939C2.84381 11.4991 2.50051 10.5145 2.5 9.5V7ZM11.38 10.49H11.88V10.5C12.2115 10.5 12.5295 10.3683 12.7639 10.1339C12.9983 9.89946 13.13 9.58152 13.13 9.25C13.13 8.91848 12.9983 8.60054 12.7639 8.36612C12.5295 8.1317 12.2115 8 11.88 8H11.38V10.49ZM4 9.55556V10.4444L6 12V10.8L5 10L6 9.2V8L4 9.55556ZM8 8V9.2L9 10L8 10.8V12L10 10.4444V9.55556L8 8Z" fill="#2CB6D4"/>
</svg>

<svg xmlns="http://www.w3.org/2000/svg" width="16" height="16" fill="none"><path fill="#2CB6D4" d="M5 6.5v-1a.47.47 0 0 1-.5-.5c0-.28.11-.4.35-.65A1.74 1.74 0 0 0 5.5 3h-1c0 .28-.11.4-.35.65A1.74 1.74 0 0 0 3.5 5 1.46 1.46 0 0 0 5 6.5ZM10 6.5v-1a.47.47 0 0 1-.5-.5c0-.28.11-.4.35-.65A1.74 1.74 0 0 0 10.5 3h-1c0 .28-.11.4-.35.65A1.74 1.74 0 0 0 8.5 5 1.46 1.46 0 0 0 10 6.5ZM6 5a1.46 1.46 0 0 0 1.5 1.5v-1A.47.47 0 0 1 7 5c0-.28.11-.4.35-.65A1.74 1.74 0 0 0 8 3a1.46 1.46 0 0 0-1.5-1.5v1A.47.47 0 0 1 7 3c0 .28-.11.4-.35.65A1.74 1.74 0 0 0 6 5Z"/><path fill="#2CB6D4" fill-rule="evenodd" d="M2.5 7h9.38v.02a2.24 2.24 0 0 1 0 4.48h-.85a4.5 4.5 0 0 1-8.53-2V7Zm8.88 3.49h.5v.01a1.25 1.25 0 0 0 0-2.5h-.5v2.49ZM4 9.556v.888L6 12v-1.2L5 10l1-.8V8L4 9.556ZM8 8v1.2l1 .8-1 .8V12l2-1.556v-.888L8 8Z" clip-rule="evenodd"/></svg>
